megaman3intro:d=4,o=5,b=150:2c#6,8p,8f#,8a,8b,32c6,2c#6,8p,16p,32p,e6,2d#6,8p,8c#6,8b,1d6,8b,32c6,16c#.6,8a,f#,8e,f#,a,f#,a,b,32b,16c.6,8b,8a,8f#,a.,8p,32b6,16c.7,8b6,8a6,8f#6,a6,8a6,8b.6,8p,16p,8f#,8g#,8a,8b,8c#6,8e6,f#6,c#6,e6,f#6,32a6,b.6,a6,16f#.6,e6,32f6,f#6,16f.6,c#.6,8p,8e6,8f#6,8p,32c7,16c#.7,8a6,8f#6,8c#6,8f#,8g#,8a,8b,32p,8c#.6,8e6,32p,8f#6,32p,8a.6,8b6,32p,32c7,16c#.7,8b6,8a.6,8f#.6,8a.6,8g#6,16p,8c#6,32p,8f.6,8g#6,32p,8b6,32p,8c#.7,8f7,32p,16c#6,16c#6,16b,16c#6,16p,16b,16p,16c#6,16p,16b,16p,16c#6,16c#6,16p,16b,16p,16c#6,16c#6,16b,16c#6,16p,16b,16p,16c#6,16p,16b,16p,16c#6,16c#6,16p,16b,16p,16a,16f#,16g#,16a,16b,16g#,16a,16b,16c#6,16a,16b,16c#6,16e6,16d6,16c#6,16b,16g#6,16f#6,16c#6,16g#6,16f#6,16c#6,16g#6,16f#6,16c#6,16g#6,16f#6,16c#6,16g#6,16f#6,16f6,16c#6,8p,8b,8c#6,8b,8e6,8p,8d#6,8p,8b,8e6,8p,8d#6,8p,8c#6,8p,8b,8p,8b,8c#6,8b,8e6,8p,8d#6,8p,8b,8e6,8p,8d#6,8p,8c#6,8e6,g#.6,8f#6,8e6,8p,8c#6,8e6,g#.6,8f#6,8e6,8p,8d#6,8p,e6,8d#6,8c#6,8p,8c#6,8p,8b,8p,8b,8c#6,8p,2c#6,p,8c#6,8e6,8c#6,8b6,8c#6,8a6,8c#6,8g#6,8c#6,8f#6,8c#6,8e6,8f#6,8p,g#6,8e6,8c#6,8b,8c#6,8e6,8p,8g#6,8e6,8c#6,8b,8c#6,8p,8c#6,8p,8c#6,8p,8c#6,8e6,8c#6,8b6,8c#6,8a6,8c#6,8g#6,8c#6,8f#6,8c#6,8e6,f#6,8p,8g#6,8g#6,8f#6,g#6,8g#6,8f#6,8g#6,8c#7,8c#7,8b6,8c#7,8p,8b6,8c#7,p,8b,8c#6,8b,8e6,8p,8d#6,8p,8b,8e6,8p,8d#6,8p,8c#6,8p,8b,8p,8b,8c#6,8b,8e6,8p,8d#6,8p,8b,8e6,8p,8d#6,8p,8c#6,8e6,g#.6,8f#6,8e6,8p,8c#6,8e6,g#.6,8f#6,8e6,8p,8d#6,8p,e6,8d#6,8c#6,8p,8c#6,8p,8b,8p,8b,8c#6,8p,2c#6,p,8c#6,8e6,8c#6,8b6,8c#6,8a6,8c#6,8g#6,8c#6,8f#6,8c#6,8e6,8f#6,8p,g#6,8e6,8c#6,8b,8c#6,8e6,8p,8g#6,8e6,8c#6,8b,8c#6,8p,8c#6,8p,8c#6,8p,8c#6,8e6,8c#6,8b6,8c#6,8a6,8c#6,8g#6,8c#6,8f#6,8c#6,8e6,f#6,8p,8g#6,8g#6,8f#6,g#6,8g#6,8f#6,8g#6,8c#7,8c#7,8b6,8c#7,8p,8b6,8c#7,p,8b,8c#6,8b,8e6,8p,8d#6,8p,8b,8e6,8p,8d#6,8p,8c#6,8p,8b,8p,8b,8c#6,8b,8e6,8p,8d#6,8p,8b,8e6,8p,8d#6,8p,8c#6,8e6,g#.6,8f#6,8e6,8p,8c#6,8e6,g#.6,8f#6,8e6,8p,8d#6,8p,e6,8d#6,8c#6,8p,8c#6,8p,8b,8p,8b,8c#6,8p,2c#6

