winterwrapup:d=4,o=5,b=89:2p,p,8p,8c#,8c#,8d#,8f,8c#,8d#,d#,8c#,8g#,16g#,8g#,8a#.,g#,8p,8c#,8f,8f,8f,8g#,16g#,8f,8d#.,8c#,8f,16f,8f,8f#.,c#,8p,16a#4,16c,8c#,8c#,8c#,8f,16d#,8c#,8c#.,16c#,16d#,8f,16f,8f,8f#.,d#,8p,8f#,8g#,16g#,8g#.,8g#,8g#,8f,8d#,8c#,8d#,8c#,16d#,8f,d#,8p,16p,8c#,8g#,8g#,8g#,8g#,8g#,a#,g#,16c#,8d#,8f.,8f#,8f,8c#,16f,16f#,8g#,8g#,8g#,8g#,g#,8f,g#,8c#,8d#,8f,16f#,8f,c#,8p,16p,16c#,8d#,8f.,8d#,16c#,8d#,8f.,8c#,8p,16f,16f,16f,16f,8f#,16f,c#,8p,16p,16c#,8d#,8f.,16d#,8c#,8d#,8f.,16f,c#,16p,8c#,16g#,8g#,8g#,8a#.,2g#,2p,8c#,8c#,8f,8c#,8f#,8f#,8a#,g#,8g#,16g#,16g#,8f,8g#,16f,8f.,8c#,8c#,8c#,8f,8c#,8f#,8f#,8a#,g#,16g#,16g#,8g#,8f,8g#,a#,8g#,8p,16g#,16g#,8g#,8f,8g#,8f,c#,8g#,8g#,8g#,8f,8g#,a#,g#,8c#,16d#,16d#,8f,8f#,8f,8c#,8f,8g#,8g#,8g#,8g#,g#,8f,g#,16c#,8d#,8f.,8f#,8f,c#,8p,8c#,8d#,8f,d#,8c#,8c#,8g#.,8g#.,8a#,2g#,8p,16c#,16c#,8d#,8f,8d#,8c#,8c#,8c#,8g#.,8g#.,8a#.,1g#,p,8p,16p,8c#,8c#,8f,8c#,8f#,8f#,8a#,g#,8g#,16g#,16g#,8f,8g#,16f,8f.,8c#,8c#,8c#,8f,8c#,8f#,8f#,8a#,g#,16g#,16g#,8g#,8f,8g#,a#,8g#,8c#,8c#,8f,8c#,8f#,8f#,8a#,g#,16g#,16g#,8g#,8f,8g#,a#,8g#,8p,16g#,16g#,8g#,8f,8g#,8f,c#,8g#,8g#,8g#,8f,8g#,a#,g#,16c#,8d#,8f.,8f#,8f,8c#,8f,8g#,8g#,8g#,8g#,g#,8f,g#,16c#,8d#,8f.,8f#,8f,c#,8p,16c#,8d#,8f.,8d#,16c#,8d#,8f.,8c#,8p,8f#,8f#,8f#,16f#,g#,8p,16p,16c#,8d#,8f.,8d#,16c#,8d#,8f.,f.,16c#,16f,8g#,16g#,8g#,8a#.,2g#,2p,8c#,8c#,8f,8c#,8f#,8f#,8a#,g#,8g#,16g#,16g#,8f,8g#,16f,8f.,8c#,8c#,8c#,8f,8c#,8f#,8f#,8a#,g#,16g#,16g#,8g#,8f,8g#,a#,8g#,8c#,8c#,8f,8c#,8f#,8f#,8a#,g#,16g#,16g#,8g#,8f,8g#,a#,8g#,8p,16g#,16g#,8g#,8f,8g#,8f,c#,8p,8f,8d#,8c#,8d#,16c#,8d#,8f.,c#,8f,8f,8f#,16f,8d#.,8c#,8p,8f,8f,8f,8g#.,8d#,8f.,c#,8f,16f,8d#,8c#.,c#,8c,8f,8f,8c#,16f#,16f#,8f,c#,16g#,16g#,8g#,8g#,8a#,2g#,8c,8f,8f,8c#,16f#,8f,8c#.,8g#,8a#,8g#,8g#,16f,2g#,16p,8c#,8c#,8f,8c#,8f#,8f#,8a#,g#,8g#,16g#,16g#,8f,8g#,16f,8f.,8c#,8c#,8c#,8f,8c#,8f#,8f#,8a#,g#,16g#,16g#,8g#,8f,8g#,a#,8g#,8c#,8c#,8f,8c#,8f#,8f#,8a#,g#,16g#,16g#,8g#,8f,8g#,a#,8g#,8p,16g#,16g#,8g#,8f,8g#,8f,c#,8p,8c#,8d#,8f,8d#,16c#,8d#,8f.,8c#.,16f#,8f#,16f#,8f#,8g#.,g#,8p,16c#,8d#,8f.,8f#,16f,8d#,8f.,8c#,8f#,8f#,16f,8f#,8f,c#,8p,16p,16c#,8d#,8f.,8d#,16c#,8d#,8f.,8f,8c#,8f#,16f,8f#.,8f,8g#,g#,8c#6,16c#6,16c#6,16a#,8c#.6,8a#,8d#6,c#.6,8c#6,16a#,8c#6,8d#.6,c#6,p,8c#6,16a#,8c#6,d#6,16p,8c#6,8c#,8c#,8f,8c#,8f#,8f#,8a#,g#,8g#,16g#,16g#,8f,8g#,16f,8f.,8c#,8c#,8c#,8f,8c#,8f#,8f#,8a#,g#,16g#,16g#,8g#,8f,8g#,a#,8g#,8c#,8c#,8f,8c#,8f#,8f#,8a#,g#,16g#,16g#,8g#,8f,8g#,a#,g#,16g#,16g#,8g#,8f,8f#,f,d#,16g#,16g#,8g#,8f,8g#,c6,1c#.6

